src/assets/icons/remotes/filen.svg

<svg width="24" height="24" viewBox="0 0 24 24" fill="currentColor" xmlns="http://www.w3.org/2000/svg">
    <path fill-rule="evenodd" clip-rule="evenodd"
        d="M12 2C6.47753 2 2 6.47753 2 12C2 17.5225 6.47753 22 12 22C17.5225 22 22 17.5225 22 12C22 6.47753 17.5228 2 12 2ZM6.67295 5.09171H12.9079C13.123 4.74849 13.5055 4.52017 13.9421 4.52017C14.6154 4.52017 15.1628 5.06528 15.1628 5.74094C15.1628 6.41661 14.6153 6.95975 13.9421 6.95975C13.4987 6.95975 13.1102 6.723 12.8971 6.369H5.99963V18.2963C5.99963 18.3095 5.99963 18.3179 5.99766 18.3311C6.61249 18.9135 7.30981 19.4065 8.07039 19.7911V14.6074C8.07039 14.5967 8.07236 14.5878 8.07236 14.577C8.07236 14.5661 8.07432 14.5574 8.07676 14.5465C8.0792 14.5356 8.08117 14.5269 8.08313 14.5161C8.0851 14.5053 8.08754 14.4965 8.08951 14.4856C8.09148 14.4748 8.09588 14.466 8.09832 14.4551C8.10075 14.4443 8.10469 14.4355 8.1091 14.4247C8.1135 14.4138 8.11791 14.4051 8.11987 14.3963C8.12428 14.3855 8.12868 14.3767 8.13309 14.3679C8.1375 14.3591 8.14387 14.3506 8.14631 14.3395C8.15071 14.3287 8.15708 14.3222 8.16149 14.3134C8.16786 14.3046 8.17227 14.2962 8.17667 14.2874C8.18305 14.2786 8.18989 14.2722 8.19392 14.2613C8.20029 14.2525 8.20713 14.2461 8.21116 14.2373C8.21754 14.2285 8.22438 14.2221 8.23075 14.2133C8.23712 14.2045 8.24397 14.1981 8.25034 14.1917C8.25671 14.1852 8.26356 14.1785 8.27199 14.17C8.2808 14.1636 8.28717 14.1568 8.29598 14.1504C8.30479 14.1441 8.31117 14.1372 8.31998 14.1308C8.32879 14.1245 8.33516 14.1176 8.34397 14.1136C8.35278 14.1072 8.36122 14.1004 8.37003 14.0984C8.37884 14.092 8.38727 14.0876 8.39608 14.0832C8.40686 14.0788 8.41333 14.0725 8.42448 14.07C8.43563 14.0676 8.44173 14.0612 8.45288 14.0568C8.46366 14.0524 8.47247 14.048 8.48128 14.0436C8.49206 14.0392 8.50087 14.0372 8.51174 14.0328C8.52261 14.0284 8.53133 14.0264 8.5422 14.024C8.55307 14.0216 8.56179 14.0176 8.57266 14.0152C8.58344 14.0132 8.59225 14.0108 8.60312 14.0088C8.61399 14.0068 8.62271 14.0044 8.63358 14.0044C8.64445 14.0044 8.65317 14.0024 8.66404 14C8.67482 14 8.68363 13.998 8.6945 13.998H10.8497C11.0648 13.6548 11.4473 13.4265 11.8839 13.4265C12.5572 13.4265 13.1046 13.9716 13.1046 14.6473C13.1046 15.3229 12.5595 15.868 11.8839 15.868C11.4405 15.868 11.052 15.6313 10.8389 15.2773H9.34655V20.2262C9.34655 20.2546 9.34458 20.2827 9.34018 20.3111C10.1833 20.5762 11.078 20.7216 12.0037 20.7216C12.8336 20.7216 13.6374 20.6067 14.3976 20.3891V13.7804C14.0563 13.5653 13.8305 13.1852 13.8305 12.7506C13.8305 12.0773 14.3756 11.5299 15.0512 11.5299C15.7269 11.5299 16.272 12.075 16.272 12.7506C16.272 13.196 16.0329 13.587 15.6744 13.8V19.9137C16.2612 19.6422 16.8127 19.3053 17.3213 18.9144V12.729C17.3213 12.7182 17.3233 12.7094 17.3233 12.6985C17.3233 12.6877 17.3253 12.6789 17.3277 12.6681C17.3297 12.6573 17.3321 12.6485 17.3341 12.6376C17.3361 12.6267 17.3385 12.618 17.3405 12.6072C17.3424 12.5963 17.3468 12.5876 17.3493 12.5767C17.3537 12.5659 17.3556 12.5571 17.36 12.5462C17.3645 12.5354 17.3664 12.5266 17.3708 12.5158C17.3752 12.5049 17.3796 12.4962 17.384 12.4874C17.3884 12.4786 17.3948 12.4701 17.3973 12.459C17.4017 12.4482 17.408 12.4417 17.4124 12.4329C17.4168 12.4241 17.4232 12.4157 17.4276 12.4069C17.434 12.3981 17.4408 12.3896 17.4449 12.3808C17.4489 12.372 17.4581 12.3656 17.4621 12.3568C17.4685 12.348 17.4753 12.3416 17.4817 12.3328C17.4881 12.324 17.4949 12.3176 17.5034 12.3112C17.5118 12.3047 17.5166 12.298 17.525 12.2895C17.5338 12.2831 17.5402 12.2763 17.549 12.2699C17.5578 12.2636 17.5642 12.2567 17.573 12.2503C17.5818 12.244 17.5882 12.2371 17.599 12.2331C17.6079 12.2267 17.6163 12.2199 17.6251 12.2179C17.6339 12.2135 17.6423 12.2071 17.6512 12.2027C17.66 12.1964 17.6684 12.1919 17.6796 12.1895C17.6903 12.1851 17.6968 12.1807 17.708 12.1763C17.7191 12.1719 17.7275 12.1675 17.7364 12.1631C17.7471 12.1587 17.7559 12.1543 17.7668 12.1523C17.7776 12.1479 17.7864 12.1459 17.7973 12.1435C17.8081 12.1411 17.8169 12.1391 17.8277 12.1347C17.8385 12.1327 17.8473 12.1303 17.8582 12.1283C17.869 12.1263 17.8778 12.1263 17.8887 12.1239C17.8995 12.1215 17.9082 12.1219 17.9191 12.1219C17.93 12.1219 17.9387 12.12 17.9496 12.12H20.7304V11.9982C20.7304 9.81499 19.9286 7.81836 18.6012 6.28867V9.03473C18.6012 9.0455 18.5992 9.05431 18.5992 9.06715C18.5992 9.08 18.5972 9.08674 18.5948 9.09762C18.5928 9.10839 18.5904 9.1172 18.5884 9.12808C18.5864 9.13895 18.584 9.14766 18.582 9.15854C18.5801 9.16941 18.5757 9.17813 18.5732 9.189C18.5688 9.19978 18.5669 9.20859 18.5624 9.21946C18.558 9.23033 18.5536 9.23905 18.5492 9.24992C18.5448 9.2607 18.5404 9.26951 18.536 9.27832C18.5316 9.2891 18.5252 9.29556 18.5228 9.30672C18.5204 9.31787 18.512 9.32396 18.5076 9.33511C18.5012 9.34589 18.4968 9.35236 18.4924 9.36117C18.4861 9.36998 18.4792 9.37842 18.4752 9.38723C18.4688 9.39604 18.462 9.40241 18.4556 9.41122C18.4492 9.42003 18.4424 9.4264 18.436 9.43521C18.4296 9.44402 18.4228 9.4504 18.4144 9.45686C18.4059 9.46333 18.3992 9.47008 18.3927 9.47851C18.3839 9.48732 18.3775 9.49173 18.3687 9.4981C18.3599 9.50448 18.3535 9.51132 18.3447 9.51769C18.3359 9.52406 18.3295 9.53091 18.3187 9.53494C18.3099 9.54131 18.3014 9.54815 18.2926 9.55012C18.2818 9.55649 18.2754 9.5609 18.2642 9.5653C18.2531 9.56971 18.247 9.57608 18.2358 9.57852C18.225 9.58292 18.2162 9.58733 18.2074 9.59173C18.1966 9.59614 18.1878 9.60054 18.177 9.60495C18.1661 9.60935 18.1574 9.61132 18.1465 9.61573C18.1356 9.62013 18.1269 9.6221 18.116 9.62454C18.1052 9.62697 18.0964 9.62894 18.0856 9.63091C18.0748 9.63288 18.066 9.63532 18.0551 9.63728C18.0443 9.63925 18.0355 9.63925 18.0227 9.64169C18.0098 9.64413 18.0031 9.64366 17.9903 9.64366H9.34683V10.9405C9.70327 11.1536 9.94002 11.5422 9.94002 11.9875C9.94002 12.6609 9.39491 13.2083 8.71925 13.2083C8.04358 13.2083 7.50241 12.6608 7.50241 11.9851C7.50241 11.5505 7.72829 11.1684 8.06954 10.9534V8.97193C8.06954 8.96115 8.07151 8.95234 8.07151 8.94147C8.07151 8.9306 8.07348 8.92188 8.07592 8.91101C8.07835 8.90014 8.08032 8.89142 8.08229 8.88055C8.08426 8.86968 8.0867 8.86096 8.08866 8.85009C8.09063 8.83921 8.09504 8.8305 8.09747 8.81963C8.09991 8.80875 8.10385 8.80004 8.10825 8.78917C8.11266 8.77829 8.11706 8.76958 8.11903 8.76077C8.12344 8.74999 8.12784 8.74118 8.13225 8.73237C8.13665 8.72356 8.14302 8.71512 8.14546 8.70397C8.14987 8.69319 8.15624 8.68672 8.16065 8.67557C8.16702 8.66479 8.17142 8.65833 8.17583 8.64952C8.1822 8.6407 8.18904 8.63227 8.19307 8.62346C8.19945 8.61465 8.20629 8.60828 8.21032 8.59947C8.21669 8.59066 8.22353 8.58428 8.22991 8.57547C8.23628 8.56666 8.24312 8.56029 8.2495 8.55382L8.27115 8.53217C8.27996 8.52336 8.28633 8.51896 8.29514 8.51258C8.30395 8.50621 8.31032 8.49937 8.31913 8.49299C8.32794 8.48662 8.33432 8.47978 8.34313 8.47575C8.35194 8.46938 8.36037 8.46253 8.36918 8.46057C8.37799 8.45419 8.38643 8.44979 8.39524 8.44538C8.40602 8.44098 8.41248 8.4346 8.42364 8.43217C8.43479 8.42973 8.44088 8.42336 8.45204 8.41895C8.46319 8.41455 8.47163 8.41014 8.48044 8.40574C8.49121 8.40133 8.50002 8.39693 8.5109 8.39496C8.52177 8.39299 8.53048 8.38858 8.54136 8.38615C8.55223 8.38371 8.56095 8.37977 8.57182 8.37734C8.58269 8.3749 8.59141 8.37293 8.60228 8.37096C8.61306 8.369 8.62187 8.36656 8.63274 8.36656C8.64361 8.36656 8.65233 8.36459 8.6632 8.36459C8.67407 8.36459 8.68279 8.36262 8.69366 8.36262H17.323V5.15235C17.323 5.13276 17.323 5.11308 17.325 5.09387C15.8518 3.95117 14.0074 3.2755 12.0023 3.2755C9.99728 3.2755 8.14602 3.95323 6.67332 5.0919H6.6721L6.67295 5.09171ZM3.27532 12C3.27532 10.2208 3.80758 8.56507 4.72206 7.18768V16.814C3.80721 15.4346 3.27532 13.7788 3.27532 11.9996V12ZM20.6121 13.397H18.5919V17.7114C19.6324 16.5166 20.3494 15.0347 20.6121 13.397Z" />
</svg>

<svg xmlns="http://www.w3.org/2000/svg" width="24" height="24" fill="currentColor" viewBox="0 0 24 24"><path fill-rule="evenodd" d="M12 2C6.478 2 2 6.478 2 12s4.478 10 10 10 10-4.477 10-10S17.523 2 12 2M6.673 5.092h6.235a1.22 1.22 0 1 1-.01 1.277H6v11.927c0 .014 0 .022-.002.035a8.8 8.8 0 0 0 2.072 1.46v-5.184l.002-.03q0-.015.005-.03l.006-.03.007-.031q.003-.016.008-.03l.011-.031q.008-.016.01-.029l.014-.028q.008-.012.013-.029l.015-.026.016-.026q.01-.01.017-.026.01-.011.017-.024l.02-.024q.01-.012.02-.021l.021-.022.024-.02.024-.02q.012-.01.024-.016.013-.012.026-.016l.026-.015.028-.013c.012-.002.018-.009.029-.013l.028-.013.03-.011.031-.009.03-.009.031-.006q.016-.004.03-.005.015 0 .031-.004l.03-.002h2.156a1.22 1.22 0 1 1-.01 1.28H9.346v4.948l-.007.085c.843.265 1.738.41 2.664.41a8.7 8.7 0 0 0 2.394-.332V13.78a1.22 1.22 0 1 1 1.277.02v6.114a8.7 8.7 0 0 0 1.646-1V12.73l.002-.03q0-.016.005-.03l.006-.031.006-.03q.004-.016.01-.031l.01-.03.01-.031.014-.029q.007-.012.013-.028l.015-.026.016-.026q.01-.013.017-.026c.004-.009.013-.015.017-.024l.02-.024a.1.1 0 0 1 .021-.022q.012-.009.022-.021l.024-.02.024-.02q.012-.01.026-.017.013-.01.026-.015l.026-.015a.1.1 0 0 1 .029-.013q.013-.008.028-.014t.028-.013q.016-.007.03-.01l.031-.01.03-.008.031-.007.03-.004q.016-.003.031-.002l.03-.002h2.781v-.122a8.68 8.68 0 0 0-2.129-5.71v2.747l-.002.032c0 .013-.002.02-.004.03l-.007.031-.006.03-.009.031-.01.03-.014.03-.013.03-.013.028c-.003.01-.011.017-.015.028l-.016.026q-.01.013-.017.026l-.02.024-.019.024a.1.1 0 0 1-.022.022.1.1 0 0 0-.021.022l-.024.02c-.01.005-.015.012-.024.019s-.015.013-.026.017q-.015.01-.026.015l-.029.015q-.013.008-.028.014l-.029.013-.03.013-.03.01-.031.01-.03.006-.03.006c-.012.002-.02.002-.033.005-.013.002-.02.002-.033.002H9.347v1.297a1.22 1.22 0 0 1-.628 2.268 1.22 1.22 0 0 1-1.217-1.224c0-.434.226-.817.568-1.032V8.972l.002-.03q0-.015.004-.031l.006-.03.007-.03.008-.031.011-.03q.009-.016.011-.03l.013-.028q.009-.012.013-.028l.016-.028.015-.026q.01-.014.017-.027.01-.011.017-.024l.02-.024q.01-.012.02-.021l.021-.022q.012-.012.024-.02l.024-.019q.012-.01.024-.017.013-.011.026-.015l.026-.016c.011-.004.017-.01.029-.013.01-.002.017-.009.028-.013l.028-.013q.016-.009.03-.011l.031-.009.03-.009.031-.006.03-.004.031-.002.03-.002h8.63v-3.21l.002-.06a8.65 8.65 0 0 0-5.323-1.817 8.7 8.7 0 0 0-5.329 1.816M3.275 12c0-1.78.533-3.435 1.447-4.812v9.626A8.7 8.7 0 0 1 3.275 12m17.337 1.397h-2.02v4.314a8.65 8.65 0 0 0 2.02-4.314" clip-rule="evenodd"/></svg>
